X: 16577
T: Hand Me Down The Tackle
R: reel
M: 4/4
K: Dmajor
|:dD (3DDD FDFA|(3ddd ef ~g2 fe|dD ~D2 FDFA|BEEF GABc|
dD (3DDD FDFA|(3ddd ef (3ggg fg|(3agf ge fdec|BEEF GABc:|
|:(3ddd fd adfd|~d2 ef (3ggg fe|(3ddd fd adfd|BEEF GABc|
~d2 fd adfd|(3ddd ef (3ggg fg|(3agf (3gfe fdec|BEEF GABc:|

